icons/svg/rdio.svg

﻿<?xml version="1.0" encoding="utf-8"?>
<!DOCTYPE svg PUBLIC "-//W3C//DTD SVG 1.1//EN" "http://www.w3.org/Graphics/SVG/1.1/DTD/svg11.dtd">
<svg xmlns="http://www.w3.org/2000/svg" xmlns:xlink="http://www.w3.org/1999/xlink" version="1.1" baseProfile="full" width="24" height="24" viewBox="0 0 24.00 24.00" enable-background="new 0 0 24.00 24.00" xml:space="preserve">
	<path fill="#000000" fill-opacity="1" stroke-width="0.2" stroke-linejoin="round" d="M 19.2919,10.8444C 19.3471,11.2229 19.3758,11.6081 19.3758,12C 19.3758,16.6114 15.4818,20.35 10.6771,20.35C 5.87443,20.35 1.97999,16.6114 1.97999,12C 1.97999,7.38858 5.87443,3.65 10.6771,3.65C 11.6195,3.65 12.5266,3.79474 13.3765,4.06193L 13.3781,9.10756C 13.3781,9.10756 10.7862,7.68918 8.46872,9.35472C 6.15098,11.018 6.58719,12.7638 6.58719,12.7638C 6.58719,12.7638 6.69563,15.5204 9.96593,15.5204C 13.6226,15.5204 14.6584,12.1915 14.6584,12.1915L 14.6584,4.57853C 15.3638,4.92588 16.0193,5.3623 16.649,5.85441C 18.2037,6.81631 19.8189,7.43533 21.6659,7.38858C 21.6659,7.38858 22.02,7.31286 22.02,8.01649C 22.02,8.39724 21.8839,8.83369 21.5021,9.24561C 21.5021,9.24561 20.7753,10.33 19.2919,10.8444 Z "/>
</svg>

<svg xmlns="http://www.w3.org/2000/svg" version="1.1" baseProfile="full" width="24" height="24" viewBox="0 0 24.00 24.00" xml:space="preserve"><path fill="#000" fill-opacity="1" stroke-width=".2" stroke-linejoin="round" d="M19.292 10.844c.055.38.084.764.084 1.156 0 4.61-3.894 8.35-8.7 8.35-4.802 0-8.696-3.74-8.696-8.35 0-4.61 3.894-8.35 8.697-8.35.943 0 1.85.145 2.7.412v5.046s-2.59-1.42-4.908.247c-2.32 1.663-1.883 3.41-1.883 3.41s.11 2.755 3.38 2.755c3.656 0 4.69-3.329 4.69-3.329V4.58c.707.346 1.362.782 1.992 1.274 1.554.962 3.17 1.58 5.016 1.535 0 0 .354-.077.354.626 0 .38-.136.818-.518 1.23 0 0-.727 1.084-2.21 1.598z"/></svg>
